_site/images/resources-page/icon-source-code.svg

<svg fill="none" height="66" viewBox="0 0 66 66" width="66" xmlns="http://www.w3.org/2000/svg"><g fill="#00a0b6"><path d="m29.9026 18.2947c.0797.1195.1822.2221.3016.302.1194.08.2533.1356.3942.1637s.2859.0282.4268.0003.275-.0833.3945-.1631l3.2812-2.1875c.1498-.0998.2726-.2352.3576-.3939.0849-.1588.1294-.336.1294-.5161 0-.18-.0445-.3573-.1294-.516-.085-.1588-.2078-.2941-.3576-.394l-3.2812-2.1875c-.2414-.161-.5368-.2195-.8213-.1627-.2845.0569-.5348.2244-.6958.4657-.161.2414-.2195.5368-.1627.8213.0569.2845.2244.5347.4657.6957l1.9195 1.2775-1.9162 1.2775c-.1198.0795-.2227.1818-.303.301-.0802.1193-.1361.2532-.1646.3941-.0284.1409-.0288.286-.0011.427.0277.1411.0829.2753.1624.395z"/><path d="m22.6073 19.7307c.1663.0958.355.1456.5469.1443.1926.0006.3818-.0497.5487-.1457s.3055-.2344.4018-.4011l4.375-7.6563c.0753-.1248.1249-.2635.1459-.4078.0209-.1443.0128-.2913-.0239-.4324-.0367-.1412-.1013-.2735-.1898-.3893-.0886-.1158-.1995-.2128-.3261-.2851s-.2664-.1186-.4111-.1362c-.1448-.0175-.2916-.0059-.4318.0341s-.271.1077-.3847.199-.2079.2044-.2773.3327l-4.375 7.6563c-.1428.2507-.1808.5478-.1056.8264s.2574.5162.507.6611z"/><path d="m15.9902 45.9414 3.2813 2.1875c.2413.161.5368.2195.8213.1627.2844-.0568.5347-.2243.6957-.4657.161-.2413.2195-.5367.1627-.8212s-.2243-.5348-.4657-.6958l-1.9195-1.2775 1.9163-1.2775c.2413-.161.4088-.4113.4656-.6958.0569-.2845-.0017-.5799-.1627-.8212-.161-.2414-.4112-.4089-.6957-.4657s-.5799.0017-.8213.1627l-3.2812 2.1875c-.1498.0999-.2727.2352-.3576.3939-.085.1588-.1294.3361-.1294.5161s.0444.3573.1294.516c.0849.1588.2078.2941.3576.394z"/><path d="m15.9902 16.4101 3.2813 2.1875c.1195.0798.2535.1352.3944.1631s.286.0278.4268-.0004c.1409-.0281.2749-.0837.3942-.1636.1194-.0799.2219-.1825.3016-.302s.1351-.2536.163-.3945c.028-.1409.0278-.2859-.0003-.4268s-.0837-.2748-.1636-.3942-.1826-.2218-.3021-.3016l-1.9195-1.2775 1.9163-1.2775c.1195-.0797.2221-.1822.302-.3015.0799-.1194.1355-.2534.1636-.3942.0282-.1409.0283-.2859.0004-.4268-.028-.141-.0834-.275-.1631-.3945s-.1822-.2221-.3015-.302c-.1194-.0799-.2534-.1355-.3942-.1637-.1409-.0281-.2859-.0282-.4268-.0003-.141.0279-.275.0833-.3945.163l-3.2812 2.1875c-.1498.0999-.2727.2352-.3576.394-.085.1587-.1294.336-.1294.516 0 .1801.0444.3573.1294.5161.0849.1587.2078.2941.3576.3939z"/><path d="m34.7009 44.1214-3.2812-2.1875c-.2414-.161-.5368-.2195-.8213-.1627s-.5348.2243-.6958.4657c-.161.2413-.2195.5367-.1627.8212.0569.2845.2244.5348.4657.6958l1.9195 1.2775-1.9162 1.2775c-.2414.161-.4089.4113-.4657.6958s.0017.5799.1627.8212c.161.2414.4113.4089.6958.4657s.5799-.0017.8212-.1627l3.2813-2.1875c.1498-.0999.2726-.2352.3576-.394.0849-.1587.1293-.336.1293-.516s-.0444-.3573-.1293-.5161c-.085-.1587-.2078-.294-.3576-.3939z"/><path d="m28.0772 39.7072c-.2518-.1438-.5504-.1817-.8301-.1054-.2798.0763-.5178.2605-.6617.5123l-4.375 7.6562c-.1438.2518-.1817.5504-.1055.8302.0763.2797.2606.5177.5123.6617.1637.0943.3493.1441.5382.1444.1925.0005.3818-.0497.5487-.1458.1669-.096.3055-.2344.4017-.4011l4.375-7.6563c.072-.1246.1187-.2623.1374-.4051.0187-.1427.009-.2878-.0285-.4268s-.102-.2693-.19-.3833c-.0879-.114-.1975-.2095-.3225-.281z"/><path d="m23.1562 24.25h2.1876c.29 0 .5682-.1152.7733-.3204.2052-.2051.3204-.4833.3204-.7734 0-.29-.1152-.5682-.3204-.7733-.2051-.2052-.4833-.3204-.7733-.3204h-2.1876c-.29 0-.5682.1152-.7733.3204-.2052.2051-.3204.4833-.3204.7733 0 .2901.1152.5683.3204.7734.2051.2052.4833.3204.7733.3204z"/><path d="m23.1562 28.625h15.3126c.29 0 .5682-.1152.7733-.3204.2052-.2051.3204-.4833.3204-.7734 0-.29-.1152-.5682-.3204-.7733-.2051-.2052-.4833-.3204-.7733-.3204h-15.3126c-.29 0-.5682.1152-.7733.3204-.2052.2051-.3204.4833-.3204.7733 0 .2901.1152.5683.3204.7734.2051.2052.4833.3204.7733.3204z"/><path d="m29.7188 24.25h15.3124c.2901 0 .5683-.1152.7734-.3204.2052-.2051.3204-.4833.3204-.7734 0-.29-.1152-.5682-.3204-.7733-.2051-.2052-.4833-.3204-.7734-.3204h-15.3124c-.2901 0-.5683.1152-.7734.3204-.2052.2051-.3204.4833-.3204.7733 0 .2901.1152.5683.3204.7734.2051.2052.4833.3204.7734.3204z"/><path d="m23.1562 37.375h8.75c.2901 0 .5683-.1152.7734-.3204.2052-.2051.3204-.4833.3204-.7734 0-.29-.1152-.5682-.3204-.7733-.2051-.2052-.4833-.3204-.7734-.3204h-8.75c-.29 0-.5682.1152-.7733.3204-.2052.2051-.3204.4833-.3204.7733 0 .2901.1152.5683.3204.7734.2051.2052.4833.3204.7733.3204z"/><path d="m45.0312 26.4375h-2.1874c-.2901 0-.5683.1152-.7734.3204-.2052.2051-.3204.4833-.3204.7733 0 .2901.1152.5683.3204.7734.2051.2052.4833.3204.7734.3204h2.1874c.2901 0 .5683-.1152.7734-.3204.2052-.2051.3204-.4833.3204-.7734 0-.29-.1152-.5682-.3204-.7733-.2051-.2052-.4833-.3204-.7734-.3204z"/><path d="m38.4688 35.1875h-2.1876c-.29 0-.5682.1152-.7733.3204-.2052.2051-.3204.4833-.3204.7733 0 .2901.1152.5683.3204.7734.2051.2052.4833.3204.7733.3204h2.1876c.29 0 .5682-.1152.7733-.3204.2052-.2051.3204-.4833.3204-.7734 0-.29-.1152-.5682-.3204-.7733-.2051-.2052-.4833-.3204-.7733-.3204z"/><path d="m23.1562 33h2.1876c.29 0 .5682-.1152.7733-.3204.2052-.2051.3204-.4833.3204-.7734 0-.29-.1152-.5682-.3204-.7733-.2051-.2052-.4833-.3204-.7733-.3204h-2.1876c-.29 0-.5682.1152-.7733.3204-.2052.2051-.3204.4833-.3204.7733 0 .2901.1152.5683.3204.7734.2051.2052.4833.3204.7733.3204z"/><path d="m45.0312 30.8125h-15.3124c-.2901 0-.5683.1152-.7734.3204-.2052.2051-.3204.4833-.3204.7733 0 .2901.1152.5683.3204.7734.2051.2052.4833.3204.7734.3204h15.3124c.2901 0 .5683-.1152.7734-.3204.2052-.2051.3204-.4833.3204-.7734 0-.29-.1152-.5682-.3204-.7733-.2051-.2052-.4833-.3204-.7734-.3204z"/><path d="m64.7188 54.875h-1.0938v-38.2812c0-1.4505-.5762-2.8415-1.6018-3.867-1.0255-1.0256-2.4165-1.6018-3.867-1.6018h-3.2812v-7.65625c-.0026-.86944-.3491-1.70253-.9639-2.31733-.6148-.614787-1.4479-.961323-2.3173-.96392h-37.1876c-.8694.002597-1.7025.349133-2.3173.96392-.6148.6148-.9613 1.44789-.9639 2.31733v7.65625h-3.28125c-1.4504 0-2.8414.5762-3.86699 1.6018-1.02559 1.0255-1.60176 2.4165-1.60176 3.867v38.2812h-1.09375c-.290081 0-.56828.1152-.773398.3204-.205118.2051-.320352.4833-.320352.7734v4.375c0 1.4504.57617 2.8414 1.60176 3.8669 1.02559 1.0256 2.41659 1.6018 3.86699 1.6018h54.68755c1.4504 0 2.8414-.5762 3.8669-1.6018 1.0256-1.0255 1.6018-2.4165 1.6018-3.8669v-4.375c0-.2901-.1152-.5683-.3204-.7734-.2051-.2052-.4833-.3204-.7733-.3204zm-9.8438-41.5625h3.2812c.8695.0026 1.7026.3491 2.3174.9639s.9613 1.4479.9639 2.3174v38.2812h-2.1875v-38.2812c0-.2901-.1152-.5683-.3204-.7734-.2051-.2052-.4833-.3204-.7734-.3204h-3.2812zm-41.5625-9.84375c0-.29008.1152-.56828.3204-.7734.2051-.20512.4833-.32035.7733-.32035h37.1876c.29 0 .5682.11523.7733.32035.2052.20512.3204.48332.3204.7734v3.28125h-39.375zm0 5.46875h39.375v40.4687c0 .2901-.1152.5683-.3204.7734-.2051.2052-.4833.3204-.7733.3204h-37.1876c-.29 0-.5682-.1152-.7733-.3204-.2052-.2051-.3204-.4833-.3204-.7734zm1.0937 43.75h37.1876c.8694-.0026 1.7025-.3491 2.3173-.9639s.9613-1.4479.9639-2.3174v-31.7187h2.1875v37.1875h-48.125v-37.1875h2.1875v31.7187c.0026.8695.3491 1.7026.9639 2.3174s1.4479.9613 2.3173.9639zm24.0626 4.375v1.0937c0 .2901-.1153.5683-.3204.7734-.2051.2052-.4833.3204-.7734.3204h-8.75c-.2901 0-.5683-.1152-.7734-.3204-.2051-.2051-.3204-.4833-.3204-.7734v-1.0937zm-33.9063-40.4687c.0026-.8695.34913-1.7026.96392-2.3174.6148-.6148 1.44789-.9613 2.31733-.9639h3.28125v2.1875h-3.28125c-.29008 0-.56828.1152-.7734.3204-.20512.2051-.32035.4833-.32035.7734v38.2812h-2.1875zm59.0625 43.75c-.0026.8694-.3491 1.7025-.9639 2.3173s-1.4479.9613-2.3173.9639h-54.68755c-.86944-.0026-1.70253-.3491-2.31733-.9639-.61479-.6148-.96132-1.4479-.96392-2.3173v-3.2813h22.9688v1.0937c.0025.8695.3491 1.7026.9639 2.3174s1.4479.9613 2.3173.9639h8.75c.8694-.0026 1.7025-.3491 2.3173-.9639s.9614-1.4479.9639-2.3174v-1.0937h22.9688z"/><path d="m16.5938 3.46875h-1.0938c-.2901 0-.5683.11523-.7734.32035s-.3204.48332-.3204.7734.1153.56828.3204.7734.4833.32035.7734.32035h1.0938c.29 0 .5682-.11523.7733-.32035.2052-.20512.3204-.48332.3204-.7734s-.1152-.56828-.3204-.7734c-.2051-.20512-.4833-.32035-.7733-.32035z"/><path d="m20.9688 3.46875h-1.0938c-.2901 0-.5683.11523-.7734.32035s-.3204.48332-.3204.7734.1153.56828.3204.7734.4833.32035.7734.32035h1.0938c.29 0 .5682-.11523.7733-.32035.2052-.20512.3204-.48332.3204-.7734s-.1152-.56828-.3204-.7734c-.2051-.20512-.4833-.32035-.7733-.32035z"/><path d="m25.3438 3.46875h-1.0938c-.2901 0-.5683.11523-.7734.32035s-.3204.48332-.3204.7734.1153.56828.3204.7734.4833.32035.7734.32035h1.0938c.29 0 .5682-.11523.7733-.32035.2052-.20512.3204-.48332.3204-.7734s-.1152-.56828-.3204-.7734c-.2051-.20512-.4833-.32035-.7733-.32035z"/><path d="m49.4062 3.46875h-17.5c-.29 0-.5682.11523-.7733.32035-.2052.20512-.3204.48332-.3204.7734s.1152.56828.3204.7734c.2051.20512.4833.32035.7733.32035h17.5c.2901 0 .5683-.11523.7734-.32035.2052-.20512.3204-.48332.3204-.7734s-.1152-.56828-.3204-.7734c-.2051-.20512-.4833-.32035-.7734-.32035z"/></g></svg>

<svg width="66" height="66" viewBox="0 0 66 66" fill="none" xmlns="http://www.w3.org/2000/svg">
<path d="M29.9026 18.2947C29.9823 18.4142 30.0848 18.5168 30.2042 18.5967C30.3236 18.6767 30.4575 18.7323 30.5984 18.7604C30.7393 18.7885 30.8843 18.7886 31.0252 18.7607C31.1661 18.7328 31.3002 18.6774 31.4197 18.5976L34.7009 16.4101C34.8507 16.3103 34.9735 16.1749 35.0585 16.0162C35.1434 15.8574 35.1879 15.6802 35.1879 15.5001C35.1879 15.3201 35.1434 15.1428 35.0585 14.9841C34.9735 14.8253 34.8507 14.69 34.7009 14.5901L31.4197 12.4026C31.1783 12.2416 30.8829 12.1831 30.5984 12.2399C30.3139 12.2968 30.0636 12.4643 29.9026 12.7056C29.7416 12.947 29.6831 13.2424 29.7399 13.5269C29.7968 13.8114 29.9643 14.0616 30.2056 14.2226L32.1251 15.5001L30.2089 16.7776C30.0891 16.8571 29.9862 16.9594 29.9059 17.0786C29.8257 17.1979 29.7698 17.3318 29.7413 17.4727C29.7129 17.6136 29.7125 17.7587 29.7402 17.8997C29.7679 18.0408 29.8231 18.175 29.9026 18.2947Z" fill="#00A0B6"/>
<path d="M22.6073 19.7307C22.7736 19.8265 22.9623 19.8763 23.1542 19.875C23.3468 19.8756 23.536 19.8253 23.7029 19.7293C23.8698 19.6333 24.0084 19.4949 24.1047 19.3282L28.4797 11.6719C28.555 11.5471 28.6046 11.4084 28.6256 11.2641C28.6465 11.1198 28.6384 10.9728 28.6017 10.8317C28.565 10.6905 28.5004 10.5582 28.4119 10.4424C28.3233 10.3266 28.2124 10.2296 28.0858 10.1573C27.9592 10.085 27.8194 10.0387 27.6747 10.0211C27.5299 10.0036 27.3831 10.0152 27.2429 10.0552C27.1027 10.0952 26.9719 10.1629 26.8582 10.2542C26.7445 10.3455 26.6503 10.4586 26.5809 10.5869L22.2059 18.2432C22.0631 18.4939 22.0251 18.791 22.1003 19.0696C22.1755 19.3482 22.3577 19.5858 22.6073 19.7307Z" fill="#00A0B6"/>
<path d="M15.9902 45.9414L19.2715 48.1289C19.5128 48.2899 19.8083 48.3484 20.0928 48.2916C20.3772 48.2348 20.6275 48.0673 20.7885 47.8259C20.9495 47.5846 21.008 47.2892 20.9512 47.0047C20.8944 46.7202 20.7269 46.4699 20.4855 46.3089L18.566 45.0314L20.4823 43.7539C20.7236 43.5929 20.8911 43.3426 20.9479 43.0581C21.0048 42.7736 20.9462 42.4782 20.7852 42.2369C20.6242 41.9955 20.374 41.828 20.0895 41.7712C19.805 41.7144 19.5096 41.7729 19.2682 41.9339L15.987 44.1214C15.8372 44.2213 15.7143 44.3566 15.6294 44.5153C15.5444 44.6741 15.5 44.8514 15.5 45.0314C15.5 45.2114 15.5444 45.3887 15.6294 45.5474C15.7143 45.7062 15.8372 45.8415 15.987 45.9414H15.9902Z" fill="#00A0B6"/>
<path d="M15.9902 16.4101L19.2715 18.5976C19.391 18.6774 19.525 18.7328 19.6659 18.7607C19.8068 18.7886 19.9519 18.7885 20.0927 18.7603C20.2336 18.7322 20.3676 18.6766 20.4869 18.5967C20.6063 18.5168 20.7088 18.4142 20.7885 18.2947C20.8682 18.1752 20.9236 18.0411 20.9515 17.9002C20.9795 17.7593 20.9793 17.6143 20.9512 17.4734C20.9231 17.3325 20.8675 17.1986 20.7876 17.0792C20.7077 16.9598 20.605 16.8574 20.4855 16.7776L18.566 15.5001L20.4823 14.2226C20.6018 14.1429 20.7044 14.0404 20.7843 13.9211C20.8642 13.8017 20.9198 13.6677 20.9479 13.5269C20.9761 13.386 20.9762 13.241 20.9483 13.1001C20.9203 12.9591 20.8649 12.8251 20.7852 12.7056C20.7055 12.5861 20.603 12.4835 20.4837 12.4036C20.3643 12.3237 20.2303 12.2681 20.0895 12.2399C19.9486 12.2118 19.8036 12.2117 19.6627 12.2396C19.5217 12.2675 19.3877 12.3229 19.2682 12.4026L15.987 14.5901C15.8372 14.69 15.7143 14.8253 15.6294 14.9841C15.5444 15.1428 15.5 15.3201 15.5 15.5001C15.5 15.6802 15.5444 15.8574 15.6294 16.0162C15.7143 16.1749 15.8372 16.3103 15.987 16.4101H15.9902Z" fill="#00A0B6"/>
<path d="M34.7009 44.1214L31.4197 41.9339C31.1783 41.7729 30.8829 41.7144 30.5984 41.7712C30.3139 41.828 30.0636 41.9955 29.9026 42.2369C29.7416 42.4782 29.6831 42.7736 29.7399 43.0581C29.7968 43.3426 29.9643 43.5929 30.2056 43.7539L32.1251 45.0314L30.2089 46.3089C29.9675 46.4699 29.8 46.7202 29.7432 47.0047C29.6864 47.2892 29.7449 47.5846 29.9059 47.8259C30.0669 48.0673 30.3172 48.2348 30.6017 48.2916C30.8862 48.3484 31.1816 48.2899 31.4229 48.1289L34.7042 45.9414C34.854 45.8415 34.9768 45.7062 35.0618 45.5474C35.1467 45.3887 35.1911 45.2114 35.1911 45.0314C35.1911 44.8514 35.1467 44.6741 35.0618 44.5153C34.9768 44.3566 34.854 44.2213 34.7042 44.1214H34.7009Z" fill="#00A0B6"/>
<path d="M28.0772 39.7072C27.8254 39.5634 27.5268 39.5255 27.2471 39.6018C26.9673 39.6781 26.7293 39.8623 26.5854 40.1141L22.2104 47.7703C22.0666 48.0221 22.0287 48.3207 22.1049 48.6005C22.1812 48.8802 22.3655 49.1182 22.6172 49.2622C22.7809 49.3565 22.9665 49.4063 23.1554 49.4066C23.3479 49.4071 23.5372 49.3569 23.7041 49.2608C23.871 49.1648 24.0096 49.0264 24.1058 48.8597L28.4808 41.2034C28.5528 41.0788 28.5995 40.9411 28.6182 40.7983C28.6369 40.6556 28.6272 40.5105 28.5897 40.3715C28.5522 40.2325 28.4877 40.1022 28.3997 39.9882C28.3118 39.8742 28.2022 39.7787 28.0772 39.7072Z" fill="#00A0B6"/>
<path d="M23.1562 24.25H25.3438C25.6338 24.25 25.912 24.1348 26.1171 23.9296C26.3223 23.7245 26.4375 23.4463 26.4375 23.1562C26.4375 22.8662 26.3223 22.588 26.1171 22.3829C25.912 22.1777 25.6338 22.0625 25.3438 22.0625H23.1562C22.8662 22.0625 22.588 22.1777 22.3829 22.3829C22.1777 22.588 22.0625 22.8662 22.0625 23.1562C22.0625 23.4463 22.1777 23.7245 22.3829 23.9296C22.588 24.1348 22.8662 24.25 23.1562 24.25Z" fill="#00A0B6"/>
<path d="M23.1562 28.625H38.4688C38.7588 28.625 39.037 28.5098 39.2421 28.3046C39.4473 28.0995 39.5625 27.8213 39.5625 27.5312C39.5625 27.2412 39.4473 26.963 39.2421 26.7579C39.037 26.5527 38.7588 26.4375 38.4688 26.4375H23.1562C22.8662 26.4375 22.588 26.5527 22.3829 26.7579C22.1777 26.963 22.0625 27.2412 22.0625 27.5312C22.0625 27.8213 22.1777 28.0995 22.3829 28.3046C22.588 28.5098 22.8662 28.625 23.1562 28.625Z" fill="#00A0B6"/>
<path d="M29.7188 24.25H45.0312C45.3213 24.25 45.5995 24.1348 45.8046 23.9296C46.0098 23.7245 46.125 23.4463 46.125 23.1562C46.125 22.8662 46.0098 22.588 45.8046 22.3829C45.5995 22.1777 45.3213 22.0625 45.0312 22.0625H29.7188C29.4287 22.0625 29.1505 22.1777 28.9454 22.3829C28.7402 22.588 28.625 22.8662 28.625 23.1562C28.625 23.4463 28.7402 23.7245 28.9454 23.9296C29.1505 24.1348 29.4287 24.25 29.7188 24.25Z" fill="#00A0B6"/>
<path d="M23.1562 37.375H31.9062C32.1963 37.375 32.4745 37.2598 32.6796 37.0546C32.8848 36.8495 33 36.5713 33 36.2812C33 35.9912 32.8848 35.713 32.6796 35.5079C32.4745 35.3027 32.1963 35.1875 31.9062 35.1875H23.1562C22.8662 35.1875 22.588 35.3027 22.3829 35.5079C22.1777 35.713 22.0625 35.9912 22.0625 36.2812C22.0625 36.5713 22.1777 36.8495 22.3829 37.0546C22.588 37.2598 22.8662 37.375 23.1562 37.375Z" fill="#00A0B6"/>
<path d="M45.0312 26.4375H42.8438C42.5537 26.4375 42.2755 26.5527 42.0704 26.7579C41.8652 26.963 41.75 27.2412 41.75 27.5312C41.75 27.8213 41.8652 28.0995 42.0704 28.3046C42.2755 28.5098 42.5537 28.625 42.8438 28.625H45.0312C45.3213 28.625 45.5995 28.5098 45.8046 28.3046C46.0098 28.0995 46.125 27.8213 46.125 27.5312C46.125 27.2412 46.0098 26.963 45.8046 26.7579C45.5995 26.5527 45.3213 26.4375 45.0312 26.4375Z" fill="#00A0B6"/>
<path d="M38.4688 35.1875H36.2812C35.9912 35.1875 35.713 35.3027 35.5079 35.5079C35.3027 35.713 35.1875 35.9912 35.1875 36.2812C35.1875 36.5713 35.3027 36.8495 35.5079 37.0546C35.713 37.2598 35.9912 37.375 36.2812 37.375H38.4688C38.7588 37.375 39.037 37.2598 39.2421 37.0546C39.4473 36.8495 39.5625 36.5713 39.5625 36.2812C39.5625 35.9912 39.4473 35.713 39.2421 35.5079C39.037 35.3027 38.7588 35.1875 38.4688 35.1875Z" fill="#00A0B6"/>
<path d="M23.1562 33H25.3438C25.6338 33 25.912 32.8848 26.1171 32.6796C26.3223 32.4745 26.4375 32.1963 26.4375 31.9062C26.4375 31.6162 26.3223 31.338 26.1171 31.1329C25.912 30.9277 25.6338 30.8125 25.3438 30.8125H23.1562C22.8662 30.8125 22.588 30.9277 22.3829 31.1329C22.1777 31.338 22.0625 31.6162 22.0625 31.9062C22.0625 32.1963 22.1777 32.4745 22.3829 32.6796C22.588 32.8848 22.8662 33 23.1562 33Z" fill="#00A0B6"/>
<path d="M45.0312 30.8125H29.7188C29.4287 30.8125 29.1505 30.9277 28.9454 31.1329C28.7402 31.338 28.625 31.6162 28.625 31.9062C28.625 32.1963 28.7402 32.4745 28.9454 32.6796C29.1505 32.8848 29.4287 33 29.7188 33H45.0312C45.3213 33 45.5995 32.8848 45.8046 32.6796C46.0098 32.4745 46.125 32.1963 46.125 31.9062C46.125 31.6162 46.0098 31.338 45.8046 31.1329C45.5995 30.9277 45.3213 30.8125 45.0312 30.8125Z" fill="#00A0B6"/>
<path d="M64.7188 54.875H63.625V16.5938C63.625 15.1433 63.0488 13.7523 62.0232 12.7268C60.9977 11.7012 59.6067 11.125 58.1562 11.125H54.875V3.46875C54.8724 2.59931 54.5259 1.76622 53.9111 1.15142C53.2963 0.536633 52.4632 0.190097 51.5938 0.1875H14.4062C13.5368 0.190097 12.7037 0.536633 12.0889 1.15142C11.4741 1.76622 11.1276 2.59931 11.125 3.46875V11.125H7.84375C6.39335 11.125 5.00235 11.7012 3.97676 12.7268C2.95117 13.7523 2.375 15.1433 2.375 16.5938V54.875H1.28125C0.991169 54.875 0.71297 54.9902 0.507852 55.1954C0.302734 55.4005 0.1875 55.6787 0.1875 55.9688V60.3438C0.1875 61.7942 0.76367 63.1852 1.78926 64.2107C2.81485 65.2363 4.20585 65.8125 5.65625 65.8125H60.3438C61.7942 65.8125 63.1852 65.2363 64.2107 64.2107C65.2363 63.1852 65.8125 61.7942 65.8125 60.3438V55.9688C65.8125 55.6787 65.6973 55.4005 65.4921 55.1954C65.287 54.9902 65.0088 54.875 64.7188 54.875ZM54.875 13.3125H58.1562C59.0257 13.3151 59.8588 13.6616 60.4736 14.2764C61.0884 14.8912 61.4349 15.7243 61.4375 16.5938V54.875H59.25V16.5938C59.25 16.3037 59.1348 16.0255 58.9296 15.8204C58.7245 15.6152 58.4463 15.5 58.1562 15.5H54.875V13.3125ZM13.3125 3.46875C13.3125 3.17867 13.4277 2.90047 13.6329 2.69535C13.838 2.49023 14.1162 2.375 14.4062 2.375H51.5938C51.8838 2.375 52.162 2.49023 52.3671 2.69535C52.5723 2.90047 52.6875 3.17867 52.6875 3.46875V6.75H13.3125V3.46875ZM13.3125 8.9375H52.6875V49.4062C52.6875 49.6963 52.5723 49.9745 52.3671 50.1796C52.162 50.3848 51.8838 50.5 51.5938 50.5H14.4062C14.1162 50.5 13.838 50.3848 13.6329 50.1796C13.4277 49.9745 13.3125 49.6963 13.3125 49.4062V8.9375ZM14.4062 52.6875H51.5938C52.4632 52.6849 53.2963 52.3384 53.9111 51.7236C54.5259 51.1088 54.8724 50.2757 54.875 49.4062V17.6875H57.0625V54.875H8.9375V17.6875H11.125V49.4062C11.1276 50.2757 11.4741 51.1088 12.0889 51.7236C12.7037 52.3384 13.5368 52.6849 14.4062 52.6875ZM38.4688 57.0625V58.1562C38.4688 58.4463 38.3535 58.7245 38.1484 58.9296C37.9433 59.1348 37.6651 59.25 37.375 59.25H28.625C28.3349 59.25 28.0567 59.1348 27.8516 58.9296C27.6465 58.7245 27.5312 58.4463 27.5312 58.1562V57.0625H38.4688ZM4.5625 16.5938C4.5651 15.7243 4.91163 14.8912 5.52642 14.2764C6.14122 13.6616 6.97431 13.3151 7.84375 13.3125H11.125V15.5H7.84375C7.55367 15.5 7.27547 15.6152 7.07035 15.8204C6.86523 16.0255 6.75 16.3037 6.75 16.5938V54.875H4.5625V16.5938ZM63.625 60.3438C63.6224 61.2132 63.2759 62.0463 62.6611 62.6611C62.0463 63.2759 61.2132 63.6224 60.3438 63.625H5.65625C4.78681 63.6224 3.95372 63.2759 3.33892 62.6611C2.72413 62.0463 2.3776 61.2132 2.375 60.3438V57.0625H25.3438V58.1562C25.3463 59.0257 25.6929 59.8588 26.3077 60.4736C26.9225 61.0884 27.7556 61.4349 28.625 61.4375H37.375C38.2444 61.4349 39.0775 61.0884 39.6923 60.4736C40.3071 59.8588 40.6537 59.0257 40.6562 58.1562V57.0625H63.625V60.3438Z" fill="#00A0B6"/>
<path d="M16.5938 3.46875H15.5C15.2099 3.46875 14.9317 3.58398 14.7266 3.7891C14.5215 3.99422 14.4062 4.27242 14.4062 4.5625C14.4062 4.85258 14.5215 5.13078 14.7266 5.3359C14.9317 5.54102 15.2099 5.65625 15.5 5.65625H16.5938C16.8838 5.65625 17.162 5.54102 17.3671 5.3359C17.5723 5.13078 17.6875 4.85258 17.6875 4.5625C17.6875 4.27242 17.5723 3.99422 17.3671 3.7891C17.162 3.58398 16.8838 3.46875 16.5938 3.46875Z" fill="#00A0B6"/>
<path d="M20.9688 3.46875H19.875C19.5849 3.46875 19.3067 3.58398 19.1016 3.7891C18.8965 3.99422 18.7812 4.27242 18.7812 4.5625C18.7812 4.85258 18.8965 5.13078 19.1016 5.3359C19.3067 5.54102 19.5849 5.65625 19.875 5.65625H20.9688C21.2588 5.65625 21.537 5.54102 21.7421 5.3359C21.9473 5.13078 22.0625 4.85258 22.0625 4.5625C22.0625 4.27242 21.9473 3.99422 21.7421 3.7891C21.537 3.58398 21.2588 3.46875 20.9688 3.46875Z" fill="#00A0B6"/>
<path d="M25.3438 3.46875H24.25C23.9599 3.46875 23.6817 3.58398 23.4766 3.7891C23.2715 3.99422 23.1562 4.27242 23.1562 4.5625C23.1562 4.85258 23.2715 5.13078 23.4766 5.3359C23.6817 5.54102 23.9599 5.65625 24.25 5.65625H25.3438C25.6338 5.65625 25.912 5.54102 26.1171 5.3359C26.3223 5.13078 26.4375 4.85258 26.4375 4.5625C26.4375 4.27242 26.3223 3.99422 26.1171 3.7891C25.912 3.58398 25.6338 3.46875 25.3438 3.46875Z" fill="#00A0B6"/>
<path d="M49.4062 3.46875H31.9062C31.6162 3.46875 31.338 3.58398 31.1329 3.7891C30.9277 3.99422 30.8125 4.27242 30.8125 4.5625C30.8125 4.85258 30.9277 5.13078 31.1329 5.3359C31.338 5.54102 31.6162 5.65625 31.9062 5.65625H49.4062C49.6963 5.65625 49.9745 5.54102 50.1796 5.3359C50.3848 5.13078 50.5 4.85258 50.5 4.5625C50.5 4.27242 50.3848 3.99422 50.1796 3.7891C49.9745 3.58398 49.6963 3.46875 49.4062 3.46875Z" fill="#00A0B6"/>
</svg>
